22x22/apps/com.github.artemanufrij.graphui.svg

<svg xmlns="http://www.w3.org/2000/svg" width="22" height="22" version="1">
 <rect style="opacity:0.2" width="20" height="20" x="1" y="1.5" rx="1" ry="1"/>
 <rect style="fill:#876e5b" width="20" height="20" x="1" y="1" rx="1" ry="1"/>
 <path style="opacity:0.6;fill:none;stroke:#f4f4f7" d="M 4.5,16 C 4.5,16 4.9495505,11.444239 5.964168,9.450512 6.6589935,8.0851765 9,6 9,6"/>
 <path style="opacity:0.6;fill:none;stroke:#f4f4f7" d="m 17.5,16 c 0,0 -0.449551,-4.555761 -1.464168,-6.549489 C 15.341006,8.0851765 13,6 13,6"/>
 <path style="opacity:0.6;fill:none;stroke:#f4f4f7" d="m 13.324231,13.7116 1.549487,2.32423"/>
 <path style="opacity:0.6;fill:none;stroke:#f4f4f7" d="M 8.67577,13.7116 7.1262825,16.03583"/>
 <path style="opacity:0.6;fill:none;stroke:#f4f4f7" d="M 11,8.2883965 V 10.612626"/>
 <path style="opacity:0.2" d="M 12.398716,15.5 A 0.39884528,0.40925818 0 0 0 12,15.909125 v 3.18175 A 0.39884528,0.40925818 0 0 0 12.398716,19.5 h 6.202568 A 0.39884528,0.40925818 0 0 0 19,19.090875 v -3.18175 A 0.39884528,0.40925818 0 0 0 18.601284,15.5 Z"/>
 <path style="opacity:0.1;fill:#f4f4f7" d="M 1,2.5 V 2 C 1,1.446 1.446,1 2,1 h 18 c 0.554,0 1,0.446 1,1 v 0.5 c 0,-0.554 -0.446,-1 -1,-1 H 2 c -0.554,0 -1,0.446 -1,1 z"/>
 <path style="opacity:0.2" d="M 3.3987157,15.5 A 0.39884528,0.40925818 0 0 0 3,15.909125 v 3.18175 A 0.39884528,0.40925818 0 0 0 3.3987157,19.5 H 9.601285 A 0.39884528,0.40925818 0 0 0 10,19.090875 v -3.18175 A 0.39884528,0.40925818 0 0 0 9.601285,15.5 Z"/>
 <path style="fill:#f4f4f7" d="M 3.3987157,15 A 0.39884528,0.40925818 0 0 0 3,15.409125 v 3.18175 A 0.39884528,0.40925818 0 0 0 3.3987157,19 H 9.601285 A 0.39884528,0.40925818 0 0 0 10,18.590875 v -3.18175 A 0.39884528,0.40925818 0 0 0 9.601285,15 Z"/>
 <path style="opacity:0.2" d="m 11,3.5 c -1.652301,0 -3,1.3476991 -3,3 0,1.652301 1.347699,3 3,3 1.652301,0 3,-1.347699 3,-3 0,-1.6523009 -1.347699,-3 -3,-3 z"/>
 <path style="fill:#f4f4f7" d="M 11,3 C 9.347699,3 8,4.3476991 8,6 8,7.652301 9.347699,9 11,9 12.652301,9 14,7.652301 14,6 14,4.3476991 12.652301,3 11,3 Z"/>
 <path style="opacity:0.2" d="M 8.3417561,10.5 A 0.34186738,0.40925818 0 0 0 8,10.909125 v 3.18175 A 0.34186738,0.40925818 0 0 0 8.3417561,14.5 H 13.658244 A 0.34186738,0.40925818 0 0 0 14,14.090875 v -3.18175 A 0.34186738,0.40925818 0 0 0 13.658244,10.5 Z"/>
 <path style="fill:#f4f4f7" d="M 8.3417561,10 A 0.34186738,0.40925818 0 0 0 8,10.409125 v 3.18175 A 0.34186738,0.40925818 0 0 0 8.3417561,14 H 13.658244 A 0.34186738,0.40925818 0 0 0 14,13.590875 v -3.18175 A 0.34186738,0.40925818 0 0 0 13.658244,10 Z"/>
 <path style="fill:#f4f4f7" d="M 12.398716,15 A 0.39884528,0.40925818 0 0 0 12,15.409125 v 3.18175 A 0.39884528,0.40925818 0 0 0 12.398716,19 h 6.202568 A 0.39884528,0.40925818 0 0 0 19,18.590875 v -3.18175 A 0.39884528,0.40925818 0 0 0 18.601284,15 Z"/>
</svg>

<svg xmlns="http://www.w3.org/2000/svg" width="22" height="22" version="1"><rect style="opacity:.2" width="20" height="20" x="1" y="1.5" rx="1" ry="1"/><rect style="fill:#876e5b" width="20" height="20" x="1" y="1" rx="1" ry="1"/><path style="opacity:.6;fill:none;stroke:#f4f4f7" d="M4.5 16s.45-4.556 1.464-6.55C6.66 8.086 9 6 9 6M17.5 16s-.45-4.556-1.464-6.55C15.34 8.086 13 6 13 6M13.324 13.712l1.55 2.324M8.676 13.712l-1.55 2.324M11 8.288v2.325"/><path style="opacity:.2" d="M12.399 15.5a.399.41 0 0 0-.399.41v3.18a.399.41 0 0 0 .399.41H18.6a.399.41 0 0 0 .399-.41v-3.18a.399.41 0 0 0-.399-.41z"/><path style="opacity:.1;fill:#f4f4f7" d="M1 2.5V2c0-.554.446-1 1-1h18c.554 0 1 .446 1 1v.5c0-.554-.446-1-1-1H2c-.554 0-1 .446-1 1z"/><path style="opacity:.2" d="M3.399 15.5a.399.41 0 0 0-.399.41v3.18a.399.41 0 0 0 .399.41H9.6a.399.41 0 0 0 .399-.41v-3.18a.399.41 0 0 0-.399-.41z"/><path style="fill:#f4f4f7" d="M3.399 15a.399.41 0 0 0-.399.41v3.18a.399.41 0 0 0 .399.41H9.6a.399.41 0 0 0 .399-.41v-3.18a.399.41 0 0 0-.399-.41z"/><path style="opacity:.2" d="M11 3.5c-1.652 0-3 1.348-3 3s1.348 3 3 3 3-1.348 3-3-1.348-3-3-3z"/><path style="fill:#f4f4f7" d="M11 3C9.348 3 8 4.348 8 6s1.348 3 3 3 3-1.348 3-3-1.348-3-3-3z"/><path style="opacity:.2" d="M8.342 10.5a.342.41 0 0 0-.342.41v3.18a.342.41 0 0 0 .342.41h5.316a.342.41 0 0 0 .342-.41v-3.18a.342.41 0 0 0-.342-.41z"/><path style="fill:#f4f4f7" d="M8.342 10a.342.41 0 0 0-.342.41v3.18a.342.41 0 0 0 .342.41h5.316a.342.41 0 0 0 .342-.41v-3.18a.342.41 0 0 0-.342-.41zM12.399 15a.399.41 0 0 0-.399.41v3.18a.399.41 0 0 0 .399.41H18.6a.399.41 0 0 0 .399-.41v-3.18a.399.41 0 0 0-.399-.41z"/></svg>
